assets/sul america.svg

<svg width="165" height="43" viewBox="0 0 165 43" fill="none" xmlns="http://www.w3.org/2000/svg">
<path d="M48.0346 0.903929C44.3888 1.33687 39.9796 2.39644 34.3627 4.18518C28.3129 6.12203 25.8748 6.79423 22.7416 7.42085C18.5831 8.26395 15.9285 8.50321 12.0434 8.42346C8.38618 8.34371 6.59745 8.08166 3.05415 7.07906C2.18827 6.82841 1.42492 6.65751 1.36796 6.70308C1.20845 6.79423 1.56164 7.1702 2.1427 7.512C2.41613 7.66011 3.13391 7.96773 3.73775 8.19559C8.29504 9.81343 15.1652 10.235 23.072 9.36909C25.5102 9.09566 25.8862 9.03869 32.198 7.94494C37.4275 7.03348 40.7429 6.54358 43.7621 6.21317C46.4737 5.91695 53.4692 5.91695 55.4402 6.21317C59.8152 6.87398 63.3357 8.05887 66.2979 9.859C66.8904 10.2236 68.0183 10.9983 68.8158 11.5908C71.311 13.4365 73.3048 14.5872 75.6176 15.4987C80.9155 17.6064 86.7944 17.6406 91.7504 15.5784C92.9695 15.0657 93.1176 15.0315 94.4848 14.9518C98.7117 14.6783 104.67 13.4365 109.558 11.8186C110.754 11.4199 113.158 10.5312 114.913 9.82482C119.812 7.87658 121.817 7.24996 124.768 6.76005C127.423 6.3271 128.699 6.23596 132.743 6.24735C136.845 6.24735 137.449 6.28153 144.25 6.91955C151.075 7.55757 151.861 7.60314 155.871 7.59175C159.267 7.59175 159.836 7.55757 160.998 7.3411C162.537 7.05627 163.642 6.73726 164.177 6.40686C164.804 6.00809 164.439 5.95113 163.266 6.23596C161.5 6.65751 159.893 6.78283 157.148 6.71447C153.593 6.62333 151.884 6.38407 142.94 4.75484C132.8 2.90914 129.929 2.57873 124.745 2.68127C120.587 2.76102 118.183 3.15979 114.446 4.42443C109.535 6.07645 102.825 9.30074 96.5242 13.0491L94.9975 13.9606L93.448 14.0745C91.3403 14.2226 83.8549 13.9036 80.3344 13.5162C78.9102 13.3567 76.643 12.844 75.0707 12.3313C72.1768 11.3743 69.8754 10.1666 66.2068 7.6715C61.7293 4.64091 60.6241 3.93453 59.1886 3.19397C56.6707 1.89514 54.8933 1.31408 52.4666 0.995073C51.35 0.846962 48.9233 0.789995 48.0346 0.903929Z" fill="#E6EDFB"/>
<path d="M6.84896 18.9965C4.23991 19.5206 1.8929 21.3321 1.03841 23.4854C0.172526 25.6843 0.685221 28.3162 2.26888 29.8656C3.43099 31.005 4.85514 31.6202 8.44401 32.5544C11.1442 33.2494 11.8848 33.5115 12.6253 34.0128C13.9925 34.9356 14.0153 36.7016 12.6823 37.7042C11.9531 38.2625 11.4404 38.365 9.58333 38.365C8.02246 38.365 7.89713 38.3536 7.27051 38.0574C5.97168 37.4535 5.4362 36.8383 5.12858 35.642L5.00325 35.1179H2.736H0.46875L0.537109 35.4825C1.0612 38.3992 2.50814 40.4044 4.96907 41.6235C6.55273 42.3982 7.37304 42.5577 9.86816 42.5691C12.3519 42.5805 12.9899 42.4666 14.5963 41.7032C15.7699 41.1449 16.9661 40.0056 17.5358 38.9119C18.5384 36.9978 18.6068 34.5824 17.7181 32.8165C17.251 31.8936 16.1914 30.9252 14.9951 30.31C13.8558 29.7289 13.0355 29.4441 10.2669 28.6807C6.1084 27.5186 5.13997 26.8578 5.27669 25.2742C5.36784 24.169 6.23372 23.2234 7.52116 22.8588C8.39844 22.5968 10.4036 22.6993 11.3949 23.0411C12.2152 23.3373 12.9671 23.9981 13.4798 24.8868C13.9697 25.7527 14.3685 25.8894 16.3737 25.8894H18.0371L17.9574 25.3767C17.5586 22.6651 15.2458 20.0447 12.6025 19.2927C10.9961 18.8256 8.36426 18.6889 6.84896 18.9965Z" fill="#E6EDFB"/>
<path d="M39.0811 19.7374C38.5684 19.8855 38.181 20.2159 37.9189 20.6944L37.6683 21.1615L37.6341 31.78L37.6113 42.4099H39.9469H42.2826V31.0167V19.6235L40.8356 19.6349C40.0267 19.6349 39.2406 19.6804 39.0811 19.7374Z" fill="#E6EDFB"/>
<path d="M53.0371 19.7374C52.4561 19.8741 51.9206 20.2615 51.6585 20.7286C51.4648 21.059 43.877 42.182 43.877 42.3757C43.877 42.3985 44.9479 42.4099 46.2581 42.4099H48.6393L49.4596 40.0743L50.2913 37.7387L54.7347 37.7615L59.1667 37.7957L59.987 40.0971L60.7959 42.4099H63.2113H65.6266L65.4215 41.8061C64.8063 40.0629 57.7311 20.3071 57.5944 19.988L57.4463 19.6235L55.4183 19.6349C54.3018 19.6462 53.2308 19.6804 53.0371 19.7374ZM56.2842 29.6381C57.0475 31.7914 57.6514 33.5688 57.6286 33.5916C57.6058 33.6257 56.2728 33.6257 54.6777 33.6143L51.7839 33.5802L53.1852 29.6495C53.96 27.4848 54.6208 25.6391 54.6549 25.5479C54.7119 25.3998 54.7233 25.3998 54.8144 25.5479C54.86 25.6391 55.5322 27.4848 56.2842 29.6381Z" fill="#E6EDFB"/>
<path d="M104.216 19.8623C103.977 20.056 102.576 22.0156 102.052 22.8929C101.983 23.0068 102.268 23.041 103.305 23.041H104.649L106.358 21.332L108.079 19.623H106.301C104.661 19.623 104.501 19.6458 104.216 19.8623Z" fill="#E6EDFB"/>
<path d="M126.535 19.8401C125.999 20.0907 125.521 20.5693 125.35 21.025C125.282 21.2073 125.225 21.7542 125.225 22.2555V23.1555L127.537 23.1327L129.839 23.0986L129.873 21.3554L129.907 19.6236H128.449C127.275 19.6236 126.899 19.6692 126.535 19.8401Z" fill="#E6EDFB"/>
<path d="M139.17 24.1812C138.121 24.3293 137.563 24.5002 136.56 24.9787C132.493 26.9497 130.67 32.145 132.345 37.0441C133.279 39.7785 135.216 41.6584 137.871 42.3761C138.999 42.6838 141.517 42.6496 142.69 42.3192C144.342 41.8521 145.664 41.0203 146.643 39.8241C147.156 39.2088 147.817 38.0011 147.988 37.3631L148.102 36.9416H146.233C145.048 36.9416 144.262 36.9871 144.103 37.0669C143.966 37.1467 143.613 37.4201 143.328 37.6821C142.36 38.5822 142.006 38.7075 140.377 38.7075C139.09 38.7075 138.896 38.6847 138.383 38.4227C136.469 37.4771 135.41 34.8338 135.809 32.0311C135.991 30.8576 136.287 30.0487 136.788 29.3879C138.201 27.5308 141.653 27.2801 143.1 28.9207L143.545 29.422H145.595C146.735 29.422 147.68 29.3765 147.714 29.3309C147.828 29.1486 146.769 27.1776 146.245 26.5965C144.661 24.842 141.71 23.8394 139.17 24.1812Z" fill="#E6EDFB"/>
<path d="M73.2152 24.3744C70.7314 24.8985 68.9427 26.1518 68.0768 27.9747C67.3363 29.5356 67.3135 29.7293 67.2679 36.3943L67.2109 42.4099H69.5579H71.8936L71.9277 36.3373L71.9619 30.2761L72.2467 29.7634C72.7822 28.8178 74.2064 28.157 75.3571 28.3393C75.6191 28.3735 76.1546 28.5671 76.542 28.7494C77.123 29.0229 77.3167 29.1938 77.5674 29.6267L77.8864 30.1622L77.9206 36.2804L77.9547 42.4099H80.222H82.5006V36.7133C82.5006 33.0903 82.5462 30.823 82.626 30.4584C82.8083 29.6153 83.1387 29.1938 83.9818 28.7608C84.6881 28.3962 84.7679 28.3735 85.6907 28.419C86.7503 28.476 87.2174 28.6469 87.8327 29.2393C88.6188 29.9685 88.5846 29.7293 88.653 35.574C88.7213 41.4073 88.6986 41.2478 89.4505 41.8744C89.9518 42.296 90.4645 42.4099 91.9912 42.4099H93.3242V36.6449C93.3242 30.2533 93.3014 29.9571 92.5836 28.4532C91.695 26.5961 89.9746 25.1948 87.7415 24.5112C87.0579 24.3061 86.625 24.2491 85.5768 24.2491C83.5488 24.2491 82.1361 24.7162 80.9626 25.7986L80.3359 26.3683L79.8688 25.9581C79.2308 25.377 78.3307 24.8074 77.6927 24.6023C76.4167 24.158 74.6051 24.0668 73.2152 24.3744Z" fill="#E6EDFB"/>
<path d="M102.041 24.2487C99.3633 24.6817 97.1074 26.2995 95.9567 28.6009C95.2959 29.9112 95.0908 31.0277 95.0908 33.3519C95.0908 35.6306 95.2845 36.7015 95.9225 38.1029C96.9137 40.2562 99.0557 41.9994 101.323 42.4779C102.474 42.7285 104.9 42.6374 106.062 42.2956C108.25 41.6804 109.879 40.279 110.813 38.251C111.019 37.8067 111.212 37.3395 111.246 37.1914L111.303 36.9408H109.503C108.512 36.9408 107.566 36.9864 107.407 37.0547C107.259 37.1117 106.837 37.4193 106.473 37.7497C105.493 38.6384 105.014 38.8207 103.579 38.8207C102.588 38.8207 102.269 38.7637 101.699 38.5472C100.924 38.2396 99.9899 37.3737 99.6025 36.6218C99.3405 36.0977 98.9987 34.7875 99.0898 34.6393C99.124 34.5938 101.95 34.5482 105.368 34.5482H111.588L111.52 32.9759C111.417 30.6061 111.019 29.2162 110.005 27.7009C108.979 26.1514 107.316 24.9437 105.573 24.4766C104.889 24.2829 102.679 24.1462 102.041 24.2487ZM104.878 28.2022C106.074 28.7491 106.906 29.82 107.065 31.0391L107.145 31.586H103.123H99.1126L99.181 31.153C99.443 29.6719 100.742 28.3389 102.291 27.9401C102.986 27.7692 104.194 27.8946 104.878 28.2022Z" fill="#E6EDFB"/>
<path d="M155.542 24.3053C153.993 24.5787 152.523 25.2965 151.498 26.2877C150.768 26.9827 150.313 27.7346 150.051 28.6917L149.846 29.4208H152.044H154.243L154.517 28.9879C155.28 27.803 157.878 27.484 159.336 28.3954C160.225 28.9651 160.305 30.0019 159.507 30.5601C158.983 30.9361 158.311 31.1298 156.157 31.4716C153.924 31.8362 153.138 32.0413 152.329 32.44C151.577 32.8274 150.689 33.568 150.233 34.1832C149.219 35.5618 149.094 37.8974 149.959 39.5836C150.37 40.3811 151.361 41.3153 152.261 41.7711C153.56 42.4091 154.403 42.5686 156.499 42.5686C158.402 42.5686 159.291 42.4205 160.202 41.9534L160.601 41.7483L160.977 42.1015L161.353 42.4661L162.948 42.5002L164.531 42.5458V36.0061C164.531 31.802 164.486 29.2157 164.406 28.7828C164.235 27.8258 163.677 26.7206 163.05 26.1168C162.424 25.5129 161.17 24.8635 159.974 24.5217C158.983 24.2483 156.545 24.123 155.542 24.3053ZM160.202 34.9921C160.202 37.3277 159.894 38.1708 158.846 38.6949C157.376 39.4469 155.291 39.3329 154.346 38.4443C153.514 37.6581 153.48 36.12 154.289 35.3795C154.676 35.0263 155.28 34.8326 157.149 34.4908C158.049 34.3199 159.063 34.0693 159.404 33.9211C159.746 33.7844 160.065 33.6591 160.122 33.6477C160.168 33.6477 160.202 34.2402 160.202 34.9921Z" fill="#E6EDFB"/>
<path d="M20.2012 30.5833C20.2467 36.2685 20.2581 36.5875 20.4974 37.4306C21.2266 40.0738 22.8672 41.6917 25.4762 42.3639C26.6611 42.6601 29.2702 42.6373 30.4665 42.3183C32.3919 41.7942 33.7363 40.7119 34.5225 39.0712C35.3542 37.3167 35.3656 37.2597 35.4111 30.5833L35.4567 24.636H34.0781C32.2438 24.636 31.6969 24.8639 31.2184 25.7981C31.0133 26.1969 31.0019 26.5387 31.0019 30.8339C31.0019 33.7278 30.9564 35.6647 30.8766 36.0292C30.5804 37.3964 29.4866 38.2965 27.9827 38.399C26.8662 38.4674 26.1256 38.2281 25.5902 37.5901C24.861 36.747 24.8496 36.6331 24.8496 30.3098V24.636H22.5026H20.167L20.2012 30.5833Z" fill="#E6EDFB"/>
<path d="M120.497 24.8074C117.41 25.3656 115.154 26.8582 114.117 29.0115C113.342 30.6179 113.297 31.2446 113.354 38.502L113.376 42.4099H115.655H117.934V37.1918C117.934 34.0587 117.979 31.8256 118.048 31.575C118.435 30.185 119.711 29.3988 122.012 29.1596L123.175 29.0343V26.8354V24.6365L122.24 24.6479C121.716 24.6479 120.941 24.7276 120.497 24.8074Z" fill="#E6EDFB"/>
<path d="M126.25 24.8985C125.908 25.0808 125.669 25.3201 125.487 25.6619L125.225 26.1518V34.2865V42.4099H127.56H129.896V33.5232V24.6365H128.324C126.888 24.6365 126.694 24.6593 126.25 24.8985Z" fill="#E6EDFB"/>
</svg>

<svg width="165" height="43" fill="none" xmlns="http://www.w3.org/2000/svg"><path d="M48.035.904c-3.646.433-8.055 1.492-13.672 3.281-6.05 1.937-8.488 2.61-11.621 3.236-4.159.843-6.814 1.082-10.699 1.002-3.657-.08-5.446-.341-8.989-1.344-.866-.25-1.63-.421-1.686-.376-.16.091.194.467.775.809.273.148.99.456 1.595.684 4.557 1.617 11.427 2.039 19.334 1.173 2.438-.273 2.814-.33 9.126-1.424 5.23-.912 8.545-1.401 11.564-1.732 2.712-.296 9.707-.296 11.678 0 4.375.661 7.896 1.846 10.858 3.646.592.365 1.72 1.14 2.518 1.732 2.495 1.846 4.489 2.996 6.802 3.908 5.297 2.107 11.176 2.142 16.132.08 1.22-.513 1.368-.548 2.735-.627 4.227-.274 10.185-1.515 15.073-3.133 1.196-.4 3.6-1.288 5.355-1.994 4.899-1.948 6.904-2.575 9.855-3.065 2.655-.433 3.931-.524 7.975-.513 4.102 0 4.706.035 11.507.673 6.825.638 7.611.683 11.621.672 3.396 0 3.965-.034 5.127-.25 1.539-.286 2.644-.605 3.179-.935.627-.399.262-.456-.911-.171-1.766.422-3.373.547-6.118.478-3.555-.09-5.264-.33-14.208-1.96-10.14-1.845-13.011-2.175-18.195-2.073-4.158.08-6.562.479-10.299 1.743-4.911 1.652-11.621 4.877-17.922 8.625l-1.526.912-1.55.114c-2.108.148-9.593-.171-13.114-.559-1.424-.16-3.691-.672-5.263-1.185-2.894-.957-5.196-2.164-8.864-4.66-4.478-3.03-5.583-3.736-7.018-4.477-2.518-1.299-4.296-1.88-6.722-2.199C51.35.847 48.923.79 48.035.904zM6.849 18.997c-2.61.524-4.956 2.335-5.81 4.488-.866 2.2-.354 4.831 1.23 6.38 1.162 1.14 2.586 1.755 6.175 2.69 2.7.694 3.44.956 4.181 1.458 1.367.923 1.39 2.689.057 3.691-.729.559-1.242.661-3.099.661-1.56 0-1.686-.011-2.312-.308-1.3-.604-1.835-1.219-2.142-2.415l-.126-.524H.47l.068.364c.524 2.917 1.971 4.922 4.432 6.142 1.584.774 2.404.934 4.9.945 2.483.011 3.12-.102 4.727-.866 1.174-.558 2.37-1.697 2.94-2.791 1.002-1.914 1.07-4.33.182-6.096-.467-.922-1.527-1.89-2.723-2.506-1.14-.581-1.96-.866-4.728-1.63-4.159-1.161-5.127-1.822-4.99-3.406.09-1.105.957-2.05 2.244-2.415.877-.262 2.883-.16 3.874.182.82.296 1.572.957 2.085 1.846.49.866.888 1.002 2.894 1.002h1.663l-.08-.512c-.398-2.712-2.711-5.332-5.355-6.084-1.606-.467-4.238-.604-5.753-.296zM39.081 19.737c-.513.149-.9.479-1.162.957l-.25.468-.035 10.618-.023 10.63h4.672V19.624l-1.447.01c-.81 0-1.595.046-1.755.103zM53.037 19.737c-.58.137-1.116.525-1.379.992-.193.33-7.781 21.453-7.781 21.647 0 .023 1.07.034 2.381.034h2.381l.82-2.336.832-2.335 4.444.023 4.432.034.82 2.301.809 2.313H65.627l-.206-.604c-.615-1.743-7.69-21.499-7.827-21.818l-.148-.364-2.028.01c-1.116.012-2.187.046-2.38.103zm3.247 9.901c.764 2.153 1.367 3.93 1.345 3.954-.023.034-1.356.034-2.951.022l-2.894-.034 1.401-3.93 1.47-4.102c.057-.148.068-.148.16 0 .045.091.717 1.937 1.47 4.09zM104.216 19.862c-.239.194-1.64 2.154-2.164 3.03-.069.115.216.149 1.253.149h1.344l1.709-1.709 1.721-1.709h-1.778c-1.64 0-1.8.023-2.085.24zM126.535 19.84c-.536.25-1.014.73-1.185 1.185-.068.182-.125.73-.125 1.23v.9l2.312-.022 2.302-.034.034-1.744.034-1.731h-1.458c-1.174 0-1.55.045-1.914.216zM139.17 24.181c-1.049.148-1.607.32-2.61.798-4.067 1.97-5.89 7.166-4.215 12.065.934 2.735 2.871 4.614 5.526 5.332 1.128.308 3.646.274 4.819-.057 1.652-.467 2.974-1.299 3.953-2.495.513-.615 1.174-1.823 1.345-2.46l.114-.422h-1.869c-1.185 0-1.971.045-2.13.125-.137.08-.49.353-.775.615-.968.9-1.322 1.026-2.951 1.026-1.287 0-1.481-.023-1.994-.285-1.914-.946-2.973-3.59-2.574-6.392.182-1.173.478-1.982.979-2.643 1.413-1.857 4.865-2.108 6.312-.467l.445.501h2.05c1.14 0 2.085-.046 2.119-.091.114-.182-.945-2.153-1.469-2.735-1.584-1.754-4.535-2.757-7.075-2.415zM73.215 24.374c-2.484.524-4.272 1.778-5.138 3.6-.74 1.562-.763 1.755-.81 8.42l-.056 6.016h4.683l.034-6.073.034-6.06.285-.514c.535-.945 1.96-1.606 3.11-1.424.262.035.798.228 1.185.41.581.274.775.445 1.025.878l.32.535.034 6.118.034 6.13H82.5v-5.697c0-3.623.045-5.89.125-6.255.182-.843.513-1.264 1.356-1.697.706-.365.786-.387 1.709-.342 1.06.057 1.526.228 2.142.82.786.73.752.49.82 6.335.068 5.833.046 5.674.797 6.3.502.422 1.014.536 2.541.536h1.333v-5.765c0-6.392-.023-6.688-.74-8.192-.889-1.857-2.61-3.258-4.843-3.942-.683-.205-1.116-.262-2.164-.262-2.028 0-3.44.467-4.614 1.55l-.627.57-.467-.41c-.638-.582-1.538-1.152-2.176-1.357-1.276-.444-3.088-.535-4.478-.228zM102.041 24.249c-2.678.433-4.934 2.05-6.084 4.352-.661 1.31-.866 2.427-.866 4.75 0 2.28.194 3.35.832 4.752.99 2.153 3.133 3.896 5.4 4.375 1.151.25 3.577.16 4.739-.182 2.188-.616 3.817-2.017 4.751-4.045.206-.444.399-.911.433-1.06l.057-.25h-1.8c-.991 0-1.937.045-2.096.114-.148.057-.57.364-.934.695-.98.888-1.459 1.07-2.894 1.07-.991 0-1.31-.056-1.88-.273-.775-.307-1.71-1.173-2.096-1.925-.262-.524-.604-1.834-.513-1.983.034-.045 2.86-.09 6.278-.09h6.22l-.068-1.573c-.103-2.37-.501-3.76-1.515-5.275-1.026-1.55-2.689-2.757-4.432-3.224-.684-.194-2.894-.33-3.532-.228zm2.837 3.953c1.196.547 2.028 1.618 2.187 2.837l.08.547h-8.032l.068-.433c.262-1.481 1.561-2.814 3.11-3.213.695-.17 1.903-.045 2.587.262zM155.542 24.305c-1.549.274-3.019.992-4.044 1.983-.73.695-1.185 1.447-1.447 2.404l-.205.729h4.397l.274-.433c.763-1.185 3.361-1.504 4.819-.593.889.57.969 1.607.171 2.165-.524.376-1.196.57-3.35.912-2.233.364-3.019.57-3.828.968-.752.387-1.64 1.128-2.096 1.743-1.014 1.379-1.139 3.714-.274 5.4.411.798 1.402 1.732 2.302 2.188 1.299.638 2.142.798 4.238.798 1.903 0 2.792-.149 3.703-.616l.399-.205.376.354.376.364 1.595.034 1.583.046v-6.54c0-4.204-.045-6.79-.125-7.223-.171-.957-.729-2.062-1.356-2.666-.626-.604-1.88-1.254-3.076-1.595-.991-.274-3.429-.399-4.432-.217zm4.66 10.687c0 2.336-.308 3.179-1.356 3.703-1.47.752-3.555.638-4.5-.25-.832-.787-.866-2.325-.057-3.066.387-.353.991-.546 2.86-.888.9-.171 1.914-.422 2.255-.57.342-.137.661-.262.718-.273.046 0 .08.592.08 1.344zM20.201 30.583c.046 5.686.057 6.005.296 6.848.73 2.643 2.37 4.26 4.98 4.933 1.184.296 3.793.273 4.99-.046 1.925-.524 3.27-1.606 4.056-3.247.831-1.754.843-1.811.888-8.488l.046-5.947h-1.379c-1.834 0-2.381.228-2.86 1.162-.205.399-.216.74-.216 5.036 0 2.894-.046 4.83-.125 5.195-.297 1.367-1.39 2.267-2.894 2.37-1.117.068-1.857-.17-2.393-.809-.729-.843-.74-.957-.74-7.28v-5.674h-4.683l.034 5.947zM120.497 24.807c-3.087.559-5.343 2.051-6.38 4.205-.775 1.606-.82 2.233-.763 9.49l.022 3.908h4.558v-5.218c0-3.133.045-5.366.114-5.617.387-1.39 1.663-2.176 3.964-2.415l1.163-.126v-4.397l-.935.01c-.524 0-1.299.08-1.743.16zM126.25 24.898a1.761 1.761 0 0 0-.763.764l-.262.49V42.41H129.896V24.636h-1.572c-1.436 0-1.63.023-2.074.262z" fill="#E6EDFB"/></svg>
